src/assets/updog-paws-up-right.svg

<svg fill="none" height="638" viewBox="0 0 627 638" width="627" xmlns="http://www.w3.org/2000/svg"><path d="m473.503 489.68 17.967-53.792s21.758-43.052 31.205-141.75l2.822-26.267s67.608-245.1124-112.673-265.45413c-118.488-13.35547-195.698 31.52473-234.724 63.86413-21.084 17.4781-25.736 41.547-31.131 68.357-4.702 23.329 17.768 68.061 8.339 92.328-40.584 104.375-47.316 111.139-58.2536 124.79-6.2362 7.801-28.3104 25.057-42.5151 51.151-28.4836 52.311-21.8515 132.172-21.8515 132.172l284.8862 50.903s89.484 12.788 123.808-13.059l2.598-28.735" fill="#e4b652"/><path d="m414.83 0s76.477 12.3962 104.668 13.7653c28.192 1.369 45.25-3.90808 52.112 40.773 6.863 44.6811-11.133 80.4507-20.168 84.1847-9.381 3.883-22.785 5.675-34.141-23.174-11.355-28.8502-23.674-64.7943-50.31-81.9199-22.513-14.4623-43.225-22.8011-49.125-25.04137-1.382-.52273-2.666-1.21971-3.851-2.06603-3.209-2.29006-7.9-6.5217.815-6.5217z" fill="#544b43"/><path d="m242.904 32.7105s5.505-15.5652-22.486-.5883c-27.99 14.977-50.867 26.179-77.366 33.214-26.498 7.035-41.105 11.055-43.6006 34.9548-2.5201 23.899 20.0876 60.177 40.4696 81.012 11.206 11.472 18.497 7.967 22.779 2.501 3.327-4.241 4.844-9.658 4.746-15.051-.171-8.898 1.004-29.047 12.503-50.519 8.613-16.056 38.414-69.4925 62.955-85.5235z" fill="#544b43"/><path d="m457.868 148.526s-45.673-30.586-97.671-22.196c-51.999 8.391-72.028 56.177-72.028 56.177" stroke="#544b43" stroke-linecap="round" stroke-linejoin="round" stroke-miterlimit="10" stroke-width="3"/><path d="m366.578 145.802s31.739-9.628 33.636 16.708c.218 3.132-1.216 6.31-4.062 7.829-3.454 1.823-9.631 2.571-20.575-1.799 0 0-4.062-2.337-7.442 1.589-3.405 3.926-6.494 10.072-16.903 9.067-4.281-.421-7.151-2.734-9.048-5.328-3.867-5.282-3.745-12.549.608-17.457 3.649-4.136 10.604-8.506 23.786-10.609z" fill="#544b43"/><path d="m525.108 268.953s-159.07 54.601-369.554-44.822l-15.708 38.369s206.636 99.633 384.743 37.472z" fill="#16d2aa"/><path d="m367.63 396.198c-18.895 0-34.213-16.327-34.213-36.467 0-20.141 15.318-36.468 34.213-36.468 18.896 0 34.214 16.327 34.214 36.468 0 20.14-15.318 36.467-34.214 36.467z" fill="#fff"/><path d="m367.639 322.452c21.091 0 38.21 17.087 38.21 38.193 0 21.082-17.095 38.194-38.21 38.194-21.091 0-38.21-17.087-38.21-38.194 0-21.106 17.119-38.193 38.21-38.193zm0 71.086c18.18 0 32.931-14.745 32.931-32.917 0-18.173-14.727-32.917-32.931-32.917-18.18 0-32.931 14.72-32.931 32.917 0 18.196 14.751 32.917 32.931 32.917z" fill="#16d2aa"/><path d="m367.634 393.562c-18.188 0-32.931-14.738-32.931-32.917 0-18.18 14.743-32.917 32.931-32.917 18.187 0 32.93 14.737 32.93 32.917 0 18.179-14.743 32.917-32.93 32.917z" fill="#fff"/><path d="m351.943 367.983c1.061 1.307 2.467 1.973 4.243 1.973s3.182-.666 4.218-1.973 1.554-3.107 1.554-5.351v-11.835l6.315-3.797v15.83c0 4.093-1.135 7.249-3.404 9.443-2.27 2.195-5.156 3.304-8.708 3.304-3.527 0-6.438-1.109-8.732-3.328-2.27-2.219-3.429-5.351-3.429-9.419v-12.033l6.315-3.797v15.608c.049 2.293.567 4.068 1.628 5.375z" fill="#16d2aa"/><path d="m389.874 349.54c1.973 1.676 2.985 4.265 2.985 7.767 0 3.501-1.012 6.041-3.059 7.668-2.048 1.627-5.156 2.416-9.324 2.416h-3.774v4.093l-6.315 3.797v-28.281h9.99c4.341.025 7.499.863 9.497 2.54zm-4.638 11.12c.765-.838 1.135-2.096 1.135-3.723 0-1.628-.493-2.787-1.48-3.477s-2.516-1.035-4.588-1.035h-3.601v9.517h4.242c2.097 0 3.528-.419 4.292-1.282z" fill="#16d2aa"/><path d="m367.475 318.107s-2.616 6.352-.116 9.785c2.515 3.456-1.308 1.144-1.308 1.144s-2.334-6.305 0-10.929c0 0 .497-2.522 1.424 0z" fill="#b5dfd5"/><path d="m489.716 301.204 79.232-28.303c11.747-6.178 31.988.419 43.039 14.785 12.339 16.044.142 78.262-109.422 94.523" fill="#e4b652"/><path d="m494.013 298.278 18.69-7.401c6.233-2.473 12.573-4.815 18.869-7.206l18.931-7.124 19.077-6.925-.125.068c5.482-2.926 13.334-3.2 21.38-.704 8.023 2.392 16.201 7.81 21.708 14.477 2.887 3.363 4.607 7.215 5.407 10.634.785 3.456.873 6.722.595 9.779-.605 6.155-2.757 11.517-5.473 16.441-5.683 9.751-13.959 17.556-23.236 24.256-9.33 6.671-19.896 12.102-31.06 16.705 10.58-5.307 20.669-11.15 29.551-18.146 8.918-6.929 16.708-14.965 21.936-24.63 2.61-4.822 4.59-10.075 5.091-15.896.489-5.712-.366-12.401-5.276-18.078-4.876-5.843-12.032-10.445-19.148-12.688-7.136-2.277-14.135-2.116-19.089.464l-.075.026-.075.027-19.248 6.711-19.392 6.513c-6.485 2.144-12.907 4.37-19.456 6.431z" fill="#c58f2c"/><path d="m218.279 295.219 78.12-27.899c11.581-6.089 31.539.404 42.437 14.553 12.167 15.801-2.564 65.233-79.307 87.667" fill="#e4b652"/><path d="m220.629 293.349 18.689-7.4c6.233-2.473 12.573-4.816 18.869-7.206l18.931-7.124 19.077-6.925-.125.068c5.482-2.926 13.334-3.2 21.38-.704 8.023 2.392 16.201 7.81 21.708 14.476 2.887 3.364 4.607 7.216 5.407 10.635.785 3.456.873 6.722.595 9.779-.605 6.155-2.757 11.517-5.473 16.441-5.683 9.751-13.959 17.556-23.236 24.256-9.33 6.671-19.896 12.102-31.06 16.705 10.58-5.307 20.669-11.15 29.551-18.146 8.919-6.929 16.708-14.965 21.936-24.63 2.61-4.822 4.59-10.075 5.091-15.896.489-5.712-.366-12.401-5.276-18.079-4.876-5.842-12.032-10.444-19.148-12.687-7.136-2.277-14.135-2.116-19.089.464l-.075.026-.075.026-19.248 6.712-19.392 6.513c-6.485 2.144-12.907 4.369-19.456 6.431z" fill="#c58f2c"/><path d="m32.019 534.714s9.7695 33.485 38.3888 61.381c7.9207 7.72 17.2852 15.013 28.286 21.049 12.0562 6.615 26.0792 11.721 42.3202 14.227 84.628 13.056 106.575 0 106.575 0s15.504-9.136-12.269-26.136c-27.774-17-45.228-24.814-45.228-24.814s118.845 7.19 158.913 5.867" fill="#e4b652"/><path d="m284.967 584.594s72.178 10.304 156.435 26.486c43.341 8.312 64.232 7.501 73.836 5.706 6.485-1.23 11.881-6.198 12.896-12.666.941-6.099-1.584-14.288-15.495-22.65-27.846-16.723-29.257-12.837-29.257-12.837 34.183-36.668-10.198-78.746-10.198-78.746s-48.416 73.213-118.316 83.984" fill="#e4b652"/><path d="m473.878 489.887c-19.896 41.076-87.633 68.941-131.277 86.451z" fill="#e4b652"/><path d="m473.878 489.887c-19.896 41.076-87.633 68.941-131.277 86.451" stroke="#c58f2c" stroke-miterlimit="10" stroke-width="1.302"/><path d="m190.919 580.913c10.73-5.646 19.981-14.596 25.333-25.791 2.64-5.597 4.021-11.81 4.169-17.999.148-6.214-.937-12.403-2.837-18.296-1.973-5.893-4.884-11.317-8.016-16.619-3.355-5.128-6.883-10.158-11.002-14.695-8.042-9.222-17.094-17.408-26.69-24.854l6.635 6.213c2.245 2.022 4.293 4.291 6.463 6.411 2.196 2.096 4.194 4.364 6.241 6.583 2.097 2.17 3.972 4.537 5.896 6.88 3.823 4.66 7.326 9.567 10.532 14.646 2.985 5.203 5.773 10.529 7.598 16.2 1.875 5.646 3.009 11.539 2.911 17.457-.05 5.917-1.382 11.786-3.651 17.284-2.343 5.474-5.747 10.479-9.793 14.942-3.971 4.463-8.633 8.408-13.789 11.638z" fill="#c48f2c"/><g fill="#c58f2c"><path d="m591.669 286.575c-3.574 3.579-7.976 4.977-9.831 3.124-1.856-1.853-.462-6.256 3.112-9.835 3.574-3.578 7.975-4.976 9.83-3.123 1.856 1.853.463 6.256-3.111 9.834z"/><path d="m606.912 288.378c-2.78 2.783-6.407 3.668-8.1 1.976-1.694-1.691-.814-5.319 1.966-8.102s6.407-3.668 8.1-1.976c1.694 1.691.813 5.319-1.966 8.102z"/><path d="m607.26 301.187c-3.044 3.048-6.746 4.287-8.267 2.768-1.522-1.52-.287-5.223 2.757-8.272 3.045-3.048 6.746-4.287 8.268-2.767s.287 5.223-2.758 8.271z"/><path d="m591.35 308.958c-5.344 5.35-12.361 7.004-15.674 3.695-3.314-3.31-1.668-10.329 3.675-15.679 5.344-5.35 12.361-7.004 15.675-3.695 3.313 3.309 1.667 10.329-3.676 15.679z"/><path d="m317.613 280.817c-3.069 4.02-7.246 5.989-9.331 4.398-2.084-1.592-1.286-6.141 1.783-10.16 3.069-4.02 7.247-5.989 9.331-4.398 2.085 1.592 1.286 6.14-1.783 10.16z"/><path d="m332.002 279.854c-2.387 3.126-5.65 4.647-7.287 3.397-1.638-1.251-1.031-4.799 1.356-7.925 2.387-3.127 5.65-4.648 7.288-3.398 1.638 1.251 1.03 4.799-1.357 7.926z"/><path d="m333.947 290.717c-2.157 2.825-4.871 4.377-6.062 3.468s-.408-3.936 1.748-6.761c2.157-2.825 4.871-4.377 6.062-3.468s.408 3.936-1.748 6.761z"/><path d="m320.396 302.867c-4.511 5.909-11.186 8.396-14.908 5.554s-3.082-9.935 1.429-15.844 11.185-8.395 14.907-5.554c3.723 2.842 3.083 9.936-1.428 15.844z"/></g><path d="m287.592 132.593s1.547-13.298 11.604-14.624c10.082-1.299 12.848 8.015 12.848 8.015" stroke="#1e1c1a" stroke-linecap="round" stroke-linejoin="round" stroke-miterlimit="10" stroke-width="3"/><path d="m422.24 115.557s3.782-11.045 13.813-9.668c10.052 1.375 11.126 10.03 11.126 10.03" stroke="#1e1c1a" stroke-linecap="round" stroke-linejoin="round" stroke-miterlimit="10" stroke-width="3"/><path d="m370.769 169.699 3.851 20.263s-2.668 10.654-18.933 14.643c-1.137.267-2.297.365-3.457.292-3.759-.219-11.995-1.314-16.032-6.349" stroke="#544b43" stroke-linecap="round" stroke-linejoin="round" stroke-miterlimit="10" stroke-width="3"/><path d="m374.62 188.911s8.32 12.129 21.671 9.128c13.351-3 13.55-9.128 13.55-9.128" stroke="#544b43" stroke-linecap="round" stroke-linejoin="round" stroke-miterlimit="10" stroke-width="3"/><path d="m59.5174 470.203s-14.643-13.566-25.0507-37.769c-10.4076-24.203-29.4926-9.386-32.10097 2.728-2.556724 11.889-14.35903 41.674 54.64667 73.937l10.2269-21.2z" fill="#e4b652"/></svg>

<svg width="627" height="638" viewBox="0 0 627 638" fill="none" xmlns="http://www.w3.org/2000/svg">
<path d="M473.503 489.68L491.47 435.888C491.47 435.888 513.228 392.836 522.675 294.138L525.497 267.871C525.497 267.871 593.105 22.7586 412.824 2.41687C294.336 -10.9386 217.126 33.9416 178.1 66.281C157.016 83.7591 152.364 107.828 146.969 134.638C142.267 157.967 164.737 202.699 155.308 226.966C114.724 331.341 107.992 338.105 97.0544 351.756C90.8182 359.557 68.744 376.813 54.5393 402.907C26.0557 455.218 32.6878 535.079 32.6878 535.079L317.574 585.982C317.574 585.982 407.058 598.77 441.382 572.923L443.98 544.188" fill="#E4B652"/>
<path d="M414.83 0C414.83 0 491.307 12.3962 519.498 13.7653C547.69 15.1343 564.748 9.85722 571.61 54.5383C578.473 99.2194 560.477 134.989 551.442 138.723C542.061 142.606 528.657 144.398 517.301 115.549C505.946 86.6988 493.627 50.7547 466.991 33.6291C444.478 19.1668 423.766 10.828 417.866 8.58773C416.484 8.065 415.2 7.36802 414.015 6.5217C410.806 4.23164 406.115 0 414.83 0Z" fill="#544B43"/>
<path d="M242.904 32.7105C242.904 32.7105 248.409 17.1453 220.418 32.1222C192.428 47.0992 169.551 58.3012 143.052 65.3362C116.554 72.3712 101.947 76.3912 99.4514 100.291C96.9313 124.19 119.539 160.468 139.921 181.303C151.127 192.775 158.418 189.27 162.7 183.804C166.027 179.563 167.544 174.146 167.446 168.753C167.275 159.855 168.45 139.706 179.949 118.234C188.562 102.178 218.363 48.7415 242.904 32.7105Z" fill="#544B43"/>
<path d="M457.868 148.526C457.868 148.526 412.195 117.94 360.197 126.33C308.198 134.721 288.169 182.507 288.169 182.507" stroke="#544B43" stroke-width="3" stroke-miterlimit="10" stroke-linecap="round" stroke-linejoin="round"/>
<path d="M366.578 145.802C366.578 145.802 398.317 136.174 400.214 162.51C400.432 165.642 398.998 168.82 396.152 170.339C392.698 172.162 386.521 172.91 375.577 168.54C375.577 168.54 371.515 166.203 368.135 170.129C364.73 174.055 361.641 180.201 351.232 179.196C346.951 178.775 344.081 176.462 342.184 173.868C338.317 168.586 338.439 161.319 342.792 156.411C346.441 152.275 353.396 147.905 366.578 145.802Z" fill="#544B43"/>
<path d="M525.108 268.953C525.108 268.953 366.038 323.554 155.554 224.131L139.846 262.5C139.846 262.5 346.482 362.133 524.589 299.972L525.108 268.953Z" fill="#16D2AA"/>
<path d="M367.63 396.198C348.735 396.198 333.417 379.871 333.417 359.731C333.417 339.59 348.735 323.263 367.63 323.263C386.526 323.263 401.844 339.59 401.844 359.731C401.844 379.871 386.526 396.198 367.63 396.198Z" fill="white"/>
<path d="M367.639 322.452C388.73 322.452 405.849 339.539 405.849 360.645C405.849 381.727 388.754 398.839 367.639 398.839C346.548 398.839 329.429 381.752 329.429 360.645C329.429 339.539 346.548 322.452 367.639 322.452ZM367.639 393.538C385.819 393.538 400.57 378.793 400.57 360.621C400.57 342.448 385.843 327.704 367.639 327.704C349.459 327.704 334.708 342.424 334.708 360.621C334.708 378.817 349.459 393.538 367.639 393.538Z" fill="#16D2AA"/>
<path d="M367.634 393.562C349.446 393.562 334.703 378.824 334.703 360.645C334.703 342.465 349.446 327.728 367.634 327.728C385.821 327.728 400.564 342.465 400.564 360.645C400.564 378.824 385.821 393.562 367.634 393.562Z" fill="white"/>
<path d="M351.943 367.983C353.004 369.29 354.41 369.956 356.186 369.956C357.962 369.956 359.368 369.29 360.404 367.983C361.44 366.676 361.958 364.876 361.958 362.632V350.797L368.273 347V362.83C368.273 366.923 367.138 370.079 364.869 372.273C362.599 374.468 359.713 375.577 356.161 375.577C352.634 375.577 349.723 374.468 347.429 372.249C345.159 370.03 344 366.898 344 362.83V350.797L350.315 347V362.608C350.364 364.901 350.882 366.676 351.943 367.983Z" fill="#16D2AA"/>
<path d="M389.874 349.54C391.847 351.216 392.859 353.805 392.859 357.307C392.859 360.808 391.847 363.348 389.8 364.975C387.752 366.602 384.644 367.391 380.476 367.391H376.702V371.484L370.387 375.281V347H380.377C384.718 347.025 387.876 347.863 389.874 349.54ZM385.236 360.66C386.001 359.822 386.371 358.564 386.371 356.937C386.371 355.309 385.878 354.15 384.891 353.46C383.904 352.77 382.375 352.425 380.303 352.425H376.702V361.942H380.944C383.041 361.942 384.472 361.523 385.236 360.66Z" fill="#16D2AA"/>
<path d="M367.475 318.107C367.475 318.107 364.859 324.459 367.359 327.892C369.874 331.348 366.051 329.036 366.051 329.036C366.051 329.036 363.717 322.731 366.051 318.107C366.051 318.107 366.548 315.585 367.475 318.107Z" fill="#B5DFD5"/>
<path d="M489.716 301.204L568.948 272.901C580.695 266.723 600.936 273.32 611.987 287.686C624.326 303.73 612.129 365.948 502.565 382.209" fill="#E4B652"/>
<path d="M494.013 298.278L512.703 290.877C518.936 288.404 525.276 286.062 531.572 283.671L550.503 276.547L569.58 269.622L569.455 269.69C574.937 266.764 582.789 266.49 590.835 268.986C598.858 271.378 607.036 276.796 612.543 283.463C615.43 286.826 617.15 290.678 617.95 294.097C618.735 297.553 618.823 300.819 618.545 303.876C617.94 310.031 615.788 315.393 613.072 320.317C607.389 330.068 599.113 337.873 589.836 344.573C580.506 351.244 569.94 356.675 558.776 361.278C569.356 355.971 579.445 350.128 588.327 343.132C597.245 336.203 605.035 328.167 610.263 318.502C612.873 313.68 614.853 308.427 615.354 302.606C615.843 296.894 614.988 290.205 610.078 284.528C605.202 278.685 598.046 274.083 590.93 271.84C583.794 269.563 576.795 269.724 571.841 272.304L571.766 272.33L571.691 272.357L552.443 279.068L533.051 285.581C526.566 287.725 520.144 289.951 513.595 292.012L494.013 298.278Z" fill="#C58F2C"/>
<path d="M218.279 295.219L296.399 267.32C307.98 261.231 327.938 267.724 338.836 281.873C351.003 297.674 336.272 347.106 259.529 369.54" fill="#E4B652"/>
<path d="M220.629 293.349L239.318 285.949C245.551 283.476 251.891 281.133 258.187 278.743L277.118 271.619L296.195 264.694L296.07 264.762C301.552 261.836 309.404 261.562 317.45 264.058C325.473 266.45 333.651 271.868 339.158 278.534C342.045 281.898 343.765 285.75 344.565 289.169C345.35 292.625 345.438 295.891 345.16 298.948C344.555 305.103 342.403 310.465 339.687 315.389C334.004 325.14 325.728 332.945 316.451 339.645C307.121 346.316 296.555 351.747 285.391 356.35C295.971 351.043 306.06 345.2 314.942 338.204C323.861 331.275 331.65 323.239 336.878 313.574C339.488 308.752 341.468 303.499 341.969 297.678C342.458 291.966 341.603 285.277 336.693 279.599C331.817 273.757 324.661 269.155 317.545 266.912C310.409 264.635 303.41 264.796 298.456 267.376L298.381 267.402L298.306 267.428L279.058 274.14L259.666 280.653C253.181 282.797 246.759 285.022 240.21 287.084L220.629 293.349Z" fill="#C58F2C"/>
<path d="M32.019 534.714C32.019 534.714 41.7885 568.199 70.4078 596.095C78.3285 603.815 87.693 611.108 98.6938 617.144C110.75 623.759 124.773 628.865 141.014 631.371C225.642 644.427 247.589 631.371 247.589 631.371C247.589 631.371 263.093 622.235 235.32 605.235C207.546 588.235 190.092 580.421 190.092 580.421C190.092 580.421 308.937 587.611 349.005 586.288" fill="#E4B652"/>
<path d="M284.967 584.594C284.967 584.594 357.145 594.898 441.402 611.08C484.743 619.392 505.634 618.581 515.238 616.786C521.723 615.556 527.119 610.588 528.134 604.12C529.075 598.021 526.55 589.832 512.639 581.47C484.793 564.747 483.382 568.633 483.382 568.633C517.565 531.965 473.184 489.887 473.184 489.887C473.184 489.887 424.768 563.1 354.868 573.871" fill="#E4B652"/>
<path d="M473.878 489.887C453.982 530.963 386.245 558.828 342.601 576.338L473.878 489.887Z" fill="#E4B652"/>
<path d="M473.878 489.887C453.982 530.963 386.245 558.828 342.601 576.338" stroke="#C58F2C" stroke-width="1.302" stroke-miterlimit="10"/>
<path d="M190.919 580.913C201.649 575.267 210.9 566.317 216.252 555.122C218.892 549.525 220.273 543.312 220.421 537.123C220.569 530.909 219.484 524.72 217.584 518.827C215.611 512.934 212.7 507.51 209.568 502.208C206.213 497.08 202.685 492.05 198.566 487.513C190.524 478.291 181.472 470.105 171.876 462.659L178.511 468.872C180.756 470.894 182.804 473.163 184.974 475.283C187.17 477.379 189.168 479.647 191.215 481.866C193.312 484.036 195.187 486.403 197.111 488.746C200.934 493.406 204.437 498.313 207.643 503.392C210.628 508.595 213.416 513.921 215.241 519.592C217.116 525.238 218.25 531.131 218.152 537.049C218.102 542.966 216.77 548.835 214.501 554.333C212.158 559.807 208.754 564.812 204.708 569.275C200.737 573.738 196.075 577.683 190.919 580.913Z" fill="#C48F2C"/>
<path d="M591.669 286.575C588.095 290.154 583.693 291.552 581.838 289.699C579.982 287.846 581.376 283.443 584.95 279.864C588.524 276.286 592.925 274.888 594.78 276.741C596.636 278.594 595.243 282.997 591.669 286.575Z" fill="#C58F2C"/>
<path d="M606.912 288.378C604.132 291.161 600.505 292.046 598.812 290.354C597.118 288.663 597.998 285.035 600.778 282.252C603.558 279.469 607.185 278.584 608.878 280.276C610.572 281.967 609.691 285.595 606.912 288.378Z" fill="#C58F2C"/>
<path d="M607.26 301.187C604.216 304.235 600.514 305.474 598.993 303.955C597.471 302.435 598.706 298.732 601.75 295.683C604.795 292.635 608.496 291.396 610.018 292.916C611.54 294.436 610.305 298.139 607.26 301.187Z" fill="#C58F2C"/>
<path d="M591.35 308.958C586.006 314.308 578.989 315.962 575.676 312.653C572.362 309.343 574.008 302.324 579.351 296.974C584.695 291.624 591.712 289.97 595.026 293.279C598.339 296.588 596.693 303.608 591.35 308.958Z" fill="#C58F2C"/>
<path d="M317.613 280.817C314.544 284.837 310.367 286.806 308.282 285.215C306.198 283.623 306.996 279.074 310.065 275.055C313.134 271.035 317.312 269.066 319.396 270.657C321.481 272.249 320.682 276.797 317.613 280.817Z" fill="#C58F2C"/>
<path d="M332.002 279.854C329.615 282.98 326.352 284.501 324.715 283.251C323.077 282 323.684 278.452 326.071 275.326C328.458 272.199 331.721 270.678 333.359 271.928C334.997 273.179 334.389 276.727 332.002 279.854Z" fill="#C58F2C"/>
<path d="M333.947 290.717C331.79 293.542 329.076 295.094 327.885 294.185C326.694 293.276 327.477 290.249 329.633 287.424C331.79 284.599 334.504 283.047 335.695 283.956C336.886 284.865 336.103 287.892 333.947 290.717Z" fill="#C58F2C"/>
<path d="M320.396 302.867C315.885 308.776 309.21 311.263 305.488 308.421C301.766 305.579 302.406 298.486 306.917 292.577C311.428 286.668 318.102 284.182 321.824 287.023C325.547 289.865 324.907 296.959 320.396 302.867Z" fill="#C58F2C"/>
<path d="M287.592 132.593C287.592 132.593 289.139 119.295 299.196 117.969C309.278 116.67 312.044 125.984 312.044 125.984" stroke="#1E1C1A" stroke-width="3" stroke-miterlimit="10" stroke-linecap="round" stroke-linejoin="round"/>
<path d="M422.24 115.557C422.24 115.557 426.022 104.512 436.053 105.889C446.105 107.264 447.179 115.919 447.179 115.919" stroke="#1E1C1A" stroke-width="3" stroke-miterlimit="10" stroke-linecap="round" stroke-linejoin="round"/>
<path d="M370.769 169.699L374.62 189.962C374.62 189.962 371.952 200.616 355.687 204.605C354.55 204.872 353.39 204.97 352.23 204.897C348.471 204.678 340.235 203.583 336.198 198.548" stroke="#544B43" stroke-width="3" stroke-miterlimit="10" stroke-linecap="round" stroke-linejoin="round"/>
<path d="M374.62 188.911C374.62 188.911 382.94 201.04 396.291 198.039C409.642 195.039 409.841 188.911 409.841 188.911" stroke="#544B43" stroke-width="3" stroke-miterlimit="10" stroke-linecap="round" stroke-linejoin="round"/>
<path d="M59.5174 470.203C59.5174 470.203 44.8744 456.637 34.4667 432.434C24.0591 408.231 4.9741 423.048 2.36573 435.162C-0.190994 447.051 -11.9933 476.836 57.0124 509.099L67.2393 487.899L59.5174 470.203Z" fill="#E4B652"/>
</svg>
